!!!COM:	Ockeghem, Johannes
!!!CDT:	~1425-1497/02/06
!!!OPR:	Missa Prolationum
!!!ONM:	2
!!!OTL:	Gloria
!!!AGN:	Mass; Gloria
!!!SCT:	Ock1011b
!!!SCA:	Ock1011b
!!!voices:	4
!!!voices-OPR:	4
**kern	**text	**kern	**text	**kern	**text	**kern	**text
*staff4	*staff4	*staff3	*staff3	*staff2	*staff2	*staff1	*staff1
*Ivox	*	*Ivox	*	*Ivox	*	*Ivox	*
*I"Contra2	*	*I"Contra1	*	*I"Discantus2	*	*I"Discantus1	*
*I'C2	*	*I'C1	*	*I'D2	*	*I'D1	*
*>[A,B]	*>[A,B]	*>[A,B]	*>[A,B]	*>[A,B]	*>[A,B]	*>[A,B]	*>[A,B]
*>A	*>A	*>A	*>A	*>A	*>A	*>A	*>A
*clefF4	*	*clefGv2	*	*clefGv2	*	*clefG2	*
*k[]	*	*k[b-]	*	*k[]	*	*k[b-]	*
*M3/1	*	*M3/1	*	*M3/1	*	*M3/1	*
*met(O)	*	*met(O)	*	*met(O)	*	*met(O)	*
=1-	=1-	=1-	=1-	=1-	=1-	=1-	=1-
!LO:TX:X=-40:Z=8:t=Comes	!	!LO:TX:X=-40:Z=8:t=Dux	!	!LO:TX:X=-40:Z=8:t=Comes	!	!LO:TX:X=-40:Z=8:t=Dux	!
0.r	.	0.F	Et	[0.c	Et	[0.f	Et
=2	=2	=2	=2	=2	=2	=2	=2
0.r	.	1.F	in	0.c]	.	1f]	.
.	.	.	.	.	.	0a	in
.	.	2F/	ter-	.	.	.	.
.	.	2A/	.	.	.	.	.
.	.	2B-\	.	.	.	.	.
=3	=3	=3	=3	=3	=3	=3	=3
0.C	Et	1c	-ra	0.e	in	1a	ter-
.	.	0G	pax	.	.	1.cc	.
.	.	.	.	.	.	2b-\	.
=4	=4	=4	=4	=4	=4	=4	=4
1.C	in	1r	.	1e	ter-	0g	-ra
.	.	0c	ho-	1.g	.	.	.
2C/	ter-	.	.	.	.	.	.
2E\	.	.	.	.	.	[1g	pax
2F\	.	.	.	2f\	.	.	.
=5	=5	=5	=5	=5	=5	=5	=5
1G	-ra	1B-	-mi-	0.d	-ra	1g]	.
0D	pax	0A	.	.	.	1r	.
.	.	.	.	.	.	1a	ho-
=6	=6	=6	=6	=6	=6	=6	=6
1r	.	1G	-ni-	0.d	pax	0b-	-mi-
0G	ho-	0G	-bus	.	.	.	.
.	.	.	.	.	.	2dd\	.
.	.	.	.	.	.	4cc\	.
.	.	.	.	.	.	4b-\	.
=7	=7	=7	=7	=7	=7	=7	=7
1F	-mi-	1A	bo-	1r	.	1a	.
0E	.	0c	-nae	0e	ho-	0g	-ni-
=8	=8	=8	=8	=8	=8	=8	=8
1D	-ni-	1.d	vo-	0f	-mi-	1b-	-bus
0D	-bus	.	.	.	.	1a	.
.	.	1f	-lun-	.	.	.	.
.	.	.	.	2a\	.	1r	.
.	.	4e\	.	4g\	.	.	.
.	.	4d\	.	4f\	.	.	.
=9	=9	=9	=9	=9	=9	=9	=9
1E	bo-	2c\	.	1e	.	2g/	bo-
.	.	1g	-ta-	.	.	2cc\	.
0G	-nae	.	.	0d	-ni-	2dd\	-nae
.	.	2e\	.	.	.	1bni	vo-
.	.	1d	-tis	.	.	.	.
.	.	.	.	.	.	4a/	-lun-
.	.	.	.	.	.	4bni\	.
=10	=10	=10	=10	=10	=10	=10	=10
1.A	vo-	2r	.	1f	-bus	0cc	-ta-
.	.	1c	lau-	.	.	.	.
.	.	.	.	1e	.	.	.
1c	-lun-	1A	.	.	.	.	.
.	.	.	.	1r	.	1a	-tis
4B\	.	2F/	.	.	.	.	.
4A\	.	.	.	.	.	.	.
=11	=11	=11	=11	=11	=11	=11	=11
2G\	.	1G	-da-	2d\	bo-	1b-	lau-
1d	-ta-	.	.	2g\	.	.	.
.	.	2.F/	-mus	2a\	-nae	1a	-da-
2B\	.	.	.	1f	vo-	.	.
.	.	4G/	.	.	.	.	.
1A	-tis	1A	te	.	.	1cc	-mus
.	.	.	.	4e\	-lun-	.	.
.	.	.	.	4f\	.	.	.
=12	=12	=12	=12	=12	=12	=12	=12
2r	.	0G	be-	0g	-ta-	0b-	te
1G	lau-	.	.	.	.	.	.
1E	.	.	.	.	.	.	.
.	.	1c	-ne-	1e	-tis	1g	.
2C/	.	.	.	.	.	.	.
=13	=13	=13	=13	=13	=13	=13	=13
1D	-da-	1B-	.	1f	lau-	1r	.
2.C/	-mus	0c	-di-	1e	-da-	0g	be-
4D\	.	.	.	.	.	.	.
1E	te	.	.	1g	-mus	.	.
=14	=14	=14	=14	=14	=14	=14	=14
0D	be-	1d	-ci-	0f	te	1b-	-ne-
.	.	2c\	-mus	.	.	2a/	-di-
.	.	2A/	.	.	.	2f/	-ci-
1G	-ne-	1B-	te	1d	.	1g	-mus
=15	=15	=15	=15	=15	=15	=15	=15
1F	.	2r	.	1r	.	1a	te
.	.	2A/	a-	.	.	.	.
0G	-di	2G/	-do-	0d	be-	0b-	a-
.	.	1B-	-ra-	.	.	.	.
.	.	4A/	-mus	.	.	.	.
.	.	4G/	.	.	.	.	.
=16	=16	=16	=16	=16	=16	=16	=16
1A	ci-	1F	te	1f	-ne-	1a	-do-
2G\	-mus	1r	.	2e\	-di-	2b-\	-ra-
2E\	.	.	.	2c\	-ci-	2cc\	.
1F	te	1F	glo-	1d	-mus	1a	-mus
=17	=17	=17	=17	=17	=17	=17	=17
2r	.	1G	-ri-	1e	te	1g	te
2E\	a-	.	.	.	.	.	.
2D\	-do-	1F	-fi-	0f	a-	2r	.
1F	-ra-	.	.	.	.	1cc	glo-
.	.	2A/	.	.	.	.	.
4E\	-mus	2B-\	.	.	.	2dd\	-ri-
4D\	.	.	.	.	.	.	.
=18	=18	=18	=18	=18	=18	=18	=18
1C	te	1c	-ca-	1e	-do-	2ee\	-fi-
.	.	.	.	.	.	2cc\	.
1r	.	1B-	.	2f\	-ra-	1dd	-ca-
.	.	.	.	2g\	.	.	.
1C	glo-	1c	.	1e	-mus	1ee	.
=19	=19	=19	=19	=19	=19	=19	=19
1D	-ri-	1F	-mus	1d	te	1ff	.
1C	-fi-	1c	te	2r	.	2ee\	.
.	.	.	.	1g	glo-	2cc\	.
2E\	.	2r	.	.	.	2b-\	.
2F\	.	[2d\	gra-	2a\	-ri	[2dd\	.
=20	=20	=20	=20	=20	=20	=20	=20
1G	-ca-	2d\]	.	2b-i\	fi-	2dd\]	.
.	.	2e\	-ci-	2g\	.	2b-\	-mus
1F	.	1f	-as	1a	-ca-	1a	te
1G	.	1d	a-	1b-i	.	1r	.
=21	=21	=21	=21	=21	=21	=21	=21
1C	-mus	2c\	.	1cc	.	0.r	.
.	.	2A/	-gi-	.	.	.	.
1G	te	2G/	-mus	2b-i\	.	.	.
.	.	1B-	ti-	2g\	.	.	.
2r	.	.	.	2f\	.	.	.
[2A\	gra-	2c\	.	[2a\	.	.	.
=22	=22	=22	=22	=22	=22	=22	=22
2A\]	.	1d	-bi	2a\]	.	0.r	.
2B\	-ci-	.	.	2f\	-mus	.	.
1c	-as	1c	prop-	1e	te	.	.
1A	a-	2F/	-ter	1r	.	.	.
.	.	2c\	ma-	.	.	.	.
=23	=23	=23	=23	=23	=23	=23	=23
2G\	.	2d\	.	0.r	.	0.r	.
2E\	-gi-	2e\	.	.	.	.	.
2D\	-mus	1f	-gnam	.	.	.	.
1F	ti-	.	.	.	.	.	.
.	.	2d\	glo-	.	.	.	.
2G\	.	2B-\	-ri-	.	.	.	.
=24	=24	=24	=24	=24	=24	=24	=24
1A	-bi	1c	-am	0.r	.	0.r	.
1G	prop-	1B-	.	.	.	.	.
2C/	-ter	2r	.	.	.	.	.
2G\	ma-	2B-\	tu-	.	.	.	.
=25	=25	=25	=25	=25	=25	=25	=25
2A\	.	2c\	.	0.r	.	1a	...prop-
2B\	.	2d\	.	.	.	.	.
1c	-gnam	2e\	.	.	.	1g	.
.	.	1c	.	.	.	.	.
2A\	glo-	.	.	.	.	1cc	-ter
2F\	-ri-	[2f\	.	.	.	.	.
=26	=26	=26	=26	=26	=26	=26	=26
1G	-am	4f\]	.	0.r	.	1b-	ma-
.	.	4e\	.	.	.	.	.
.	.	4e\	.	.	.	.	.
.	.	4d\	.	.	.	.	.
1F	.	1f	.	.	.	1a	.
2r	.	1c	-am	.	.	2g/	.
2F\	tu-	.	.	.	.	2a/	.
=27	=27	=27	=27	=27	=27	=27	=27
2G\	.	2r	.	1e	...prop-	2b-\	.
2A\	.	2c\	do-	.	.	2cc\	-gnam
2B-i\	.	1d	.	1d	.	2r	.
1G	.	.	.	.	.	1dd	glo-
.	.	2B-\	.	1g	-ter	.	.
[2c\	.	2c\	.	.	.	2ee\	.
=28	=28	=28	=28	=28	=28	=28	=28
4c\]	.	1d	.	1f	ma-	2ff\	.
4B\	.	.	.	.	.	.	.
4B\	.	.	.	.	.	2dd\	.
4A\	.	.	.	.	.	.	.
1c	.	2c\	.	1e	.	2.ee\	.
.	.	1g	.	.	.	.	.
.	.	.	.	.	.	4cc\	-ri-
1G	-am	.	.	2d\	.	2bni\	-am
.	.	2e\	-mi-	2e\	.	2cc\	.
=29	=29	=29	=29	=29	=29	=29	=29
2r	.	1d	-ne	2f\	.	4dd\	tu-
.	.	.	.	.	.	2bni\	.
2G\	do-	.	.	2g\	-gnam	.	.
.	.	.	.	.	.	4a/	.
1A	.	1c	.	2r	.	0cc	-am
.	.	.	.	1a	glo-	.	.
2F\	.	1r	.	.	.	.	.
2G\	.	.	.	2b-i\	.	.	.
=30	=30	=30	=30	=30	=30	=30	=30
1A	.	1F	de-	2cc\	.	1r	.
.	.	.	.	2a\	.	.	.
2G\	.	1G	-us	2.b-i\	.	0dd	do-
1d	.	.	.	.	.	.	.
.	.	.	.	4g\	-ri-	.	.
.	.	1B-	rex	2f\	-am	.	.
2B-i\	-mi	.	.	2g\	.	.	.
=31	=31	=31	=31	=31	=31	=31	=31
1A	ne	1c	.	4a\	tu-	1cc	-mi-
.	.	.	.	2f\	.	.	.
.	.	.	.	4e\	.	.	.
1G	.	1d	ce-	0g	-am	1b-	-ne
1r	.	1e-	.	.	.	2.cc\	de-
.	.	.	.	.	.	4b-\	.
=32	=32	=32	=32	=32	=32	=32	=32
1C	de-	1e-i	-les-	1r	.	1g	-us
1D	-us	0d	-tis	0a	do-	0f	rex
1F	rex	.	.	.	.	.	.
=33	=33	=33	=33	=33	=33	=33	=33
1G	.	1d	de-	1g	-mi-	1b-	ce-
1A	ce-	2.c\	.	1f	-ne	2a/	-les-
.	.	.	.	.	.	2cc\	.
.	.	4B-\	.	.	.	.	.
1B-	.	2.G/	.	2.g\	de-	2b-\	.
.	.	.	.	.	.	[2g/	.
.	.	4A/	.	4f\	.	.	.
=34	=34	=34	=34	=34	=34	=34	=34
1B-i	-les-	1B-	.	1d	-us	2g/]	.
.	.	.	.	.	.	4f/	.
.	.	.	.	.	.	4g/	.
0A	-tis	0F	-us	0c	rex	[0a	-tis
=35	=35	=35	=35	=35	=35	=35	=35
1A	de-	1F	pa-	1f	ce-	1a]	.
2.G\	.	1G	.	2e\	-les-	1b-	de-
.	.	.	.	2g\	.	.	.
4F\	.	.	.	.	.	.	.
2.D\	.	[1A	.	2f\	.	[1a	-us
.	.	.	.	[2d\	.	.	.
4E\	.	.	.	.	.	.	.
=36	=36	=36	=36	=36	=36	=36	=36
1F	.	1A]	.	2d\]	.	1a]	.
.	.	.	.	4c\	.	.	.
.	.	.	.	4d\	.	.	.
0C	-us	1G	.	[0e	-tis	1r	.
.	.	[1c	.	.	.	1g	pa-
=37	=37	=37	=37	=37	=37	=37	=37
1C	pa-	1c]	.	1e]	.	1cc	-ter
1D	.	1F	-ter	1f	de-	1a	om-
[1E	.	2r	.	[1e	-us	2.cc\	.
.	.	[2c\	om-	.	.	.	.
.	.	.	.	.	.	4b-\	.
=38	=38	=38	=38	=38	=38	=38	=38
1E]	.	2c\]	.	1e]	.	1g	.
.	.	2B-\	.	.	.	.	.
1D	.	1.d	.	1r	.	2a/	.
.	.	.	.	.	.	2.b-\	.
[1G	.	.	.	1d	pa-	.	.
.	.	.	.	.	.	4cc\	.
.	.	2B-\	.	.	.	[2dd\	.
=39	=39	=39	=39	=39	=39	=39	=39
1G]	.	1B-	.	1g	-ter	2dd\]	.
.	.	.	.	.	.	1g	.
1C	-ter	1c	.	1e	om-	.	.
.	.	.	.	.	.	2cc\	.
2r	.	[1d	.	2.g\	.	2bni\	.
[2G\	om-	.	.	.	.	[2bni\	-ni-
.	.	.	.	4f\	.	.	.
=40	=40	=40	=40	=40	=40	=40	=40
2G\]	.	1d]	.	1d	.	2b\]	.
2F\	.	.	.	.	.	4a/	-po-
.	.	.	.	.	.	4bni\	.
1.A	.	1c	.	2e\	.	1.cc	-tens
.	.	.	.	2.f\	.	.	.
.	.	1F	.	.	.	.	.
.	.	.	.	4g\	.	.	.
2F\	.	.	.	[2a\	.	2a/	do-
=41	=41	=41	=41	=41	=41	=41	=41
1F	.	1f	-ni-	2a\]	.	1a	-mi-
.	.	.	.	1d	.	.	.
1G	.	1d	.	.	.	1b-	.
.	.	.	.	2g\	.	.	.
[1A	.	[1c	-po-	2f\	.	1cc	.
.	.	.	.	[2f\	-ni-	.	.
=42	=42	=42	=42	=42	=42	=42	=42
1A]	.	1c]	.	2f\]	.	1cc	-ne
.	.	.	.	4e\	-po-	.	.
.	.	.	.	4f\	.	.	.
1G	.	1B-	-tens	1.g	-tens	1dd	de-
1C	.	2r	.	.	.	1cc	.
.	.	[2c\	do-	2e\	do-	.	.
=43	=43	=43	=43	=43	=43	=43	=43
1c	-ni-	4c\]	.	1e	-mi-	0cc	-us
.	.	4B-\	-mi-	.	.	.	.
.	.	4A/	-ne	.	.	.	.
.	.	4G/	.	.	.	.	.
1A	.	2F/	fi-	1f	.	.	.
.	.	2c\	.	.	.	.	.
[1G	-po-	2d\	.	1g	.	1b-	fi-
.	.	[2e-i\	.	.	.	.	.
=44	=44	=44	=44	=44	=44	=44	=44
1G]	.	2e-\]	.	1g	-ne	1b-	-li
.	.	2d\	-li	.	.	.	.
1F	-tens	1f	u-	1a	de-	1a	.
2r	.	2.B-\	-ni-	1g	.	1r	.
[2G\	do-	.	.	.	.	.	.
.	.	4c\	.	.	.	.	.
=45	=45	=45	=45	=45	=45	=45	=45
4G\]	.	1d	-ge-	0g	-us	1r	.
4F\	-mi-	.	.	.	.	.	.
4E\	-ne	.	.	.	.	.	.
4D\	.	.	.	.	.	.	.
2C/	fi-	1e-i	.	.	.	1r	.
2G\	.	.	.	.	.	.	.
2A\	.	[1d	.	1f	fi-	[1f	u-
[2B-i\	.	.	.	.	.	.	.
=46	=46	=46	=46	=46	=46	=46	=46
2B-\]	.	1d]	.	1f	-li	1f]	.
2A\	-li	.	.	.	.	.	.
1c	u-	2c\	-ni-	1e	.	2g/	.
.	.	1A	-te	.	.	2a/	-ni-
2.F\	-ni-	.	.	1r	.	2cc\	-ge-
.	.	2B-\	Je-	.	.	[2b-\	.
4G\	.	.	.	.	.	.	.
=47	=47	=47	=47	=47	=47	=47	=47
1A	-ge-	2c\	-su	1r	.	4b-\]	.
.	.	.	.	.	.	4a/	.
.	.	2.F/	Chri-	.	.	1a	.
1B-i	.	.	.	1r	.	.	.
.	.	4D/	.	.	.	.	.
.	.	2E/	.	.	.	2g/	.
[1A	.	[1F	-ste	[1c	u-	1a	-ni-
=48	=48	=48	=48	=48	=48	=48	=48
1A]	.	1F]	.	1c]	.	1f	-te
2G\	-ni-	1B-	do-	2d\	.	2r	.
1E	-te	.	.	2e\	-ni-	1g	Je-
.	.	2c\	-mi-	2g\	-ge-	.	.
2F\	Je-	2F/	-ne	[2f\	.	2a/	-su
=49	=49	=49	=49	=49	=49	=49	=49
2G\	-su	2B-\	de-	4f\]	.	2g/	Chri-
.	.	.	.	4e\	.	.	.
2.C/	Chri-	2c\	.	1e	.	2e/	.
.	.	1d	-us	.	.	1f	-ste
4AA/	.	.	.	.	.	.	.
2BB/	.	.	.	2d\	.	.	.
[1C	-ste	2.c\	ag-	1e	-ni-	2r	.
.	.	.	.	.	.	2g/	do-
.	.	8B-/L	.	.	.	.	.
.	.	8A/J	.	.	.	.	.
=50	=50	=50	=50	=50	=50	=50	=50
1C]	.	1G	.	1c	-te	1g	-mi-
1F	do-	1F	-nus	2r	.	1a	.
.	.	.	.	1d	Je-	.	.
2G\	-mi-	2B-\	de-	.	.	2b-\	.
2C/	-ne	2c\	.	2e\	-su	2g/	.
=51	=51	=51	=51	=51	=51	=51	=51
2F\	de-	1d	.	2d\	Chri-	2f/	.
2G\	.	.	.	2B-i\	.	1b-	.
1A	-us	1c	.	1c	-ste	.	.
.	.	.	.	.	.	2a/	-ne
2.G\	ag-	1B-	-i	2r	.	2b-\	de-
.	.	.	.	2d\	do-	2g/	.
8F\L	.	.	.	.	.	.	.
8E\J	.	.	.	.	.	.	.
=52	=52	=52	=52	=52	=52	=52	=52
1D	.	2r	.	1d	-mi-	1f	-us
.	.	2B-\	fi-	.	.	.	.
1C	-nus	1c	.	1e	.	2r	.
.	.	.	.	.	.	2g/	ag-
2F\	de-	[1F	.	2f\	.	2f/	.
2G\	.	.	.	2d\	.	[2a/	.
=53	=53	=53	=53	=53	=53	=53	=53
1A	.	1F]	.	2c\	.	2a/]	.
.	.	.	.	1f	.	2cc\	.
1G	.	2r	.	.	.	2b-\	.
.	.	2B-\	.	2e\	-ne	2g/	.
1F	-i	2c\	.	2f\	de-	1a	.
.	.	[2F/	.	2d\	.	.	.
=54	=54	=54	=54	=54	=54	=54	=54
2r	.	2F/]	.	1c	-us	1a	-nus
2F\	fi-	2A/	-li-	.	.	.	.
1G	.	1G	-us	2r	.	1b-	de-
.	.	.	.	2d\	ag-	.	.
[1C	.	2r	.	2c\	.	1cc	-i
.	.	2c\	pa-	[2e\	.	.	.
=55	=55	=55	=55	=55	=55	=55	=55
1C]	.	2G/	.	2e\]	.	1r	.
.	.	1c	.	2g\	.	.	.
2r	.	.	.	2f\	.	1a	fi-
2F\	.	2A/	.	2d\	.	.	.
2G\	.	2B-\	.	1e	.	1g	.
[2C/	.	[2c\	.	.	.	.	.
=56	=56	=56	=56	=56	=56	=56	=56
2C/]	.	4c\]	.	1e	-nus	1g	.
.	.	4B-\	.	.	.	.	.
2E\	-li-	4A/	.	.	.	.	.
.	.	4G/	.	.	.	.	.
1D	-us	1F	.	1f	de-	1a	-li-
2r	.	2.B-\	.	1g	-i	1d	-us
2G\	pa-	.	.	.	.	.	.
.	.	4G/	.	.	.	.	.
=57	=57	=57	=57	=57	=57	=57	=57
2D\	.	2A/	.	1r	.	2r	.
1G	.	2B-\	.	.	.	1g	pa-
.	.	2G/	.	1e	fi-	.	.
2E\	.	2c\	.	.	.	2g/	.
2F\	.	2A/	.	1d	.	2a/	.
[2G\	.	[2B-\	.	.	.	[2g/	.
=58	=58	=58	=58	=58	=58	=58	=58
4G\]	.	4B-\]	.	1d	.	4g/]	.
4F\	.	4c\	.	.	.	4f/	.
4E\	.	2F/	.	.	.	1f	.
4D\	.	.	.	.	.	.	.
1C	.	1G	.	1e	-li-	.	.
.	.	.	.	.	.	2e/	.
2.F\	.	1F	.	1A	-us	1f	.
4D\	.	.	.	.	.	.	.
=59	=59	=59	=59	=59	=59	=59	=59
2E\	.	2B-\	.	2r	.	2g/	.
2F\	.	2A/	.	1d	pa-	2f/	.
2D\	.	2d\	.	.	.	2a/	.
2G\	.	2B-\	.	2d\	.	2b-\	.
2E\	.	2c\	.	2e\	.	2g/	.
[2F\	.	2A/	.	[2d\	.	2a/	.
=60	=60	=60	=60	=60	=60	=60	=60
4F\]	.	2B-\	.	4d\]	.	2f/	.
4G\	.	.	.	4c\	.	.	.
2C/	.	2c\	.	1c	.	4e/	.
.	.	.	.	.	.	2g/	.
1D	.	1F	.	.	.	.	.
.	.	.	.	.	.	4f/	.
.	.	.	.	2B\	.	2.f/	.
1C	.	1G	.	[1cl	-tris.	.	.
.	.	.	.	.	.	4e/	.
.	.	.	.	.	.	4e/	.
.	.	.	.	.	.	4d/	.
=61	=61	=61	=61	=61	=61	=61	=61
0.Fl	-tris.	0.Fl	-tris.	0.c]	.	0.fl	-tris.
!!LO:LB:i:g=z
=62||	=62||	=62||	=62||	=62||	=62||	=62||	=62||
*>B	*>B	*>B	*>B	*>B	*>B	*>B	*>B
*clefF4	*	*clefGv2	*	*clefGv2	*	*clefG2	*
*k[]	*	*k[b-]	*	*k[]	*	*k[b-]	*
*M2/1	*	*M2/1	*	*M2/1	*	*M2/1	*
*met(C|)	*	*met(C|)	*	*met(C|)	*	*met(C|)	*
!!section: Qui tollis
!!!OMD: Qui tollis
0r	.	[0B-	Qui	0r	.	0f	Qui
=63	=63	=63	=63	=63	=63	=63	=63
0r	.	0B-]	.	0r	.	1d	.
.	.	.	.	.	.	[1g	tol-
=64	=64	=64	=64	=64	=64	=64	=64
0r	.	0B-	tol-	0r	.	2g/]	.
.	.	.	.	.	.	2f/	.
.	.	.	.	.	.	1f	-lis
=65	=65	=65	=65	=65	=65	=65	=65
0r	.	0E-i	-lis	0r	.	1g	pec-
.	.	.	.	.	.	[1b-	-ca-
=66	=66	=66	=66	=66	=66	=66	=66
0r	.	1r	.	0r	.	2b-\]	.
.	.	.	.	.	.	4a/	.
.	.	.	.	.	.	4g/	.
.	.	1B-	pec-	.	.	1f	.
=67	=67	=67	=67	=67	=67	=67	=67
0r	.	0B-	-ca-	0r	.	1.g	.
.	.	.	.	.	.	4f/	.
.	.	.	.	.	.	4g/	.
=68	=68	=68	=68	=68	=68	=68	=68
0r	.	1F	-ta	0r	.	2.a/	.
.	.	.	.	.	.	4b-\	.
.	.	1A	.	.	.	1cc	-ta
=69	=69	=69	=69	=69	=69	=69	=69
0r	.	1G	mun-	0r	.	1b-	mun-
.	.	2F/	.	.	.	2a/	.
.	.	[2B-\	.	.	.	2f/	.
=70	=70	=70	=70	=70	=70	=70	=70
0r	.	2B-\]	.	0r	.	1g	.
.	.	2c\	.	.	.	.	.
.	.	1d	-di	.	.	1f	-di
=71	=71	=71	=71	=71	=71	=71	=71
0r	.	2d\	mi-	0r	.	2B-/	mi-
.	.	2c\	.	.	.	2c/	.
.	.	1d	-se-	.	.	2B-/	-se-
.	.	.	.	.	.	[2f/	-re-
=72	=72	=72	=72	=72	=72	=72	=72
0r	.	1e-i	-re-	0r	.	4f/]	.
.	.	.	.	.	.	4e-i/	.
.	.	.	.	.	.	4d/	.
.	.	.	.	.	.	4c/	.
.	.	2d\	.	.	.	1B-i	-re
.	.	[2f\	.	.	.	.	.
=73	=73	=73	=73	=73	=73	=73	=73
0r	.	4f\]	.	0r	.	2f/	no-
.	.	4d\	.	.	.	.	.
.	.	2e-i\	-re	.	.	2g/	.
.	.	2f\	no-	.	.	2a/	.
.	.	2d\	.	.	.	[2b-\	.
=74	=74	=74	=74	=74	=74	=74	=74
0r	.	1c	-bis	0r	.	2b-\]	.
.	.	.	.	.	.	2a/	.
.	.	2r	.	.	.	1b-	-bis
.	.	[2d\	qui	.	.	.	.
=75	=75	=75	=75	=75	=75	=75	=75
0r	.	4d\]	.	0r	.	2.a/	qui
.	.	4c\	.	.	.	.	.
.	.	2A/	.	.	.	.	.
.	.	.	.	.	.	4f/	.
.	.	2B-\	tol-	.	.	2g/	.
.	.	2A/	.	.	.	[2a/	tol-
=76	=76	=76	=76	=76	=76	=76	=76
0r	.	1c	-lis	0r	.	4a/]	.
.	.	.	.	.	.	8g/L	.
.	.	.	.	.	.	8f/J	.
.	.	.	.	.	.	2e/	.
.	.	2r	.	.	.	2f/	-lis
.	.	[2F/	pec-	.	.	2a/	pec-
=77	=77	=77	=77	=77	=77	=77	=77
0r	.	2F/]	.	0r	.	1g	-ca-
.	.	2E/	.	.	.	.	.
.	.	2F/	-ca-	.	.	2c/	.
.	.	2A/	.	.	.	2f/	-ta
=78	=78	=78	=78	=78	=78	=78	=78
0r	.	2G/	-ta	0r	.	2g/	mun-
.	.	2.c\	mun-	.	.	1a	.
.	.	4A/	.	.	.	.	.
.	.	2B-\	.	.	.	[2g/	.
=79	=79	=79	=79	=79	=79	=79	=79
0r	.	1F	.	0r	.	4g/]	.
.	.	.	.	.	.	4f/	.
.	.	.	.	.	.	1f	.
.	.	1G	.	.	.	.	.
.	.	.	.	.	.	2e/	.
=80	=80	=80	=80	=80	=80	=80	=80
[0F	sus-	0F	-di	0c	sus-	[0f	-di
=81	=81	=81	=81	=81	=81	=81	=81
0F]	.	0r	.	1A	.	0f]	.
.	.	.	.	[1d	.	.	.
=82	=82	=82	=82	=82	=82	=82	=82
0F	-ci-	0A	sus-	2d\]	.	1r	.
.	.	.	.	2c\	.	.	.
.	.	.	.	1c	-ci-	[1f	sus-
=83	=83	=83	=83	=83	=83	=83	=83
0BB-i	-pe	1B-	.	1d	.	2f/]	.
.	.	.	.	.	.	2g/	.
.	.	1B-	-ci-	[1f	.	1b-	.
=84	=84	=84	=84	=84	=84	=84	=84
1r	.	0F	-pe	2f\]	.	[0a	-ci-
.	.	.	.	4e\	.	.	.
.	.	.	.	4d\	.	.	.
1F	de-	.	.	1c	-pe	.	.
=85	=85	=85	=85	=85	=85	=85	=85
0F	-pre-	1r	.	1.d	de-	0a]	.
.	.	1F	de-	.	.	.	.
.	.	.	.	4c\	.	.	.
.	.	.	.	4d\	.	.	.
=86	=86	=86	=86	=86	=86	=86	=86
1C	-ca-	1c	.	2.e\	.	0g	-pe...
.	.	.	.	4f\	.	.	.
1E	-ti-	2B-\	-pre-	1g	-pre-	.	.
.	.	2G/	.	.	.	.	.
=87	=87	=87	=87	=87	=87	=87	=87
1D	-o-	2A/	-ca-	1f	-ca-	0r	.
.	.	2B-\	-ti-	.	.	.	.
2C/	.	1c	-o-	2e\	-ti-	.	.
[2F\	.	.	.	2c\	.	.	.
=88	=88	=88	=88	=88	=88	=88	=88
2F\]	.	1B-	-nem	1d	-o-	0r	.
2G\	.	.	.	.	.	.	.
1A	-nem	2r	.	1c	-nem	.	.
.	.	[2c\	nos-	.	.	.	.
=89	=89	=89	=89	=89	=89	=89	=89
2A\	no-	2c\]	.	2F/	no-	0r	.
2G\	.	2B-\	.	2G/	.	.	.
1A	.	2c\	.	2F/	.	.	.
.	.	2A/	.	[2c\	.	.	.
=90	=90	=90	=90	=90	=90	=90	=90
1B-i	.	1G	-tram	4c\]	.	0r	.
.	.	.	.	4B-i\	.	.	.
.	.	.	.	4A/	.	.	.
.	.	.	.	4G/	.	.	.
2A\	-stram	2r	.	1F	.	.	.
[2c\	qui	[2A/	qui	.	.	.	.
=91	=91	=91	=91	=91	=91	=91	=91
4c\]	.	4A/]	.	2c\	.	0r	.
4A\	.	4F/	.	.	.	.	.
2B-i\	.	2B-\	.	2d\	.	.	.
2c\	.	2A/	.	2e\	.	.	.
2A\	.	2F/	.	[2f\	.	.	.
=92	=92	=92	=92	=92	=92	=92	=92
1G	.	1G	se-	2f\]	.	0r	.
.	.	.	.	2e\	.	.	.
2r	.	1F	-des...	1f	-stram	.	.
[2A\	se-	.	.	.	.	.	.
=93	=93	=93	=93	=93	=93	=93	=93
4A\]	.	0r	.	2.e\	qui	0r	.
4G\	.	.	.	.	.	.	.
2E\	.	.	.	.	.	.	.
.	.	.	.	4c\	.	.	.
2F\	.	.	.	2d\	.	.	.
2E\	.	.	.	[2e\	se-	.	.
=94	=94	=94	=94	=94	=94	=94	=94
1G	-des	0r	.	4e\]	.	0r	.
.	.	.	.	8d\L	.	.	.
.	.	.	.	8c\J	.	.	.
.	.	.	.	2B\	.	.	.
2r	.	.	.	2c\	.	.	.
[2C/	ad	.	.	2e\	-des	.	.
=95	=95	=95	=95	=95	=95	=95	=95
2C/]	.	0r	.	1d	ad	0r	.
2BB/	.	.	.	.	.	.	.
2C/	.	.	.	2G/	.	.	.
2E\	.	.	.	2c\	.	.	.
=96	=96	=96	=96	=96	=96	=96	=96
2D\	.	0r	.	2d\	.	0r	.
2.G\	.	.	.	1e	.	.	.
4E\	.	.	.	.	.	.	.
2F\	.	.	.	[2d\	dex-	.	.
=97	=97	=97	=97	=97	=97	=97	=97
1C	dex-	0r	.	4d\]	.	0r	.
.	.	.	.	4c\	-te-	.	.
.	.	.	.	1c	-ram	.	.
1D	-te-	.	.	.	.	.	.
.	.	.	.	2B\	pa-	.	.
=98	=98	=98	=98	=98	=98	=98	=98
0C	-ram	1r	.	[0c	-tris	0g	...mi-
.	.	1E	...pa-	.	.	.	.
=99	=99	=99	=99	=99	=99	=99	=99
0r	.	1F	.	0c]	.	1a	.
.	.	1A	.	.	.	1cc	-se-
=100	=100	=100	=100	=100	=100	=100	=100
0E	pa-	0G	-tris	1r	.	1b-	-re-
.	.	.	.	[1c	mi-	1g	-re
=101	=101	=101	=101	=101	=101	=101	=101
1F	-tris	1r	.	2c\]	.	1r	.
.	.	.	.	2d\	.	.	.
1F	mi-	1F	mi-	1f	-se-	1a	no-
=102	=102	=102	=102	=102	=102	=102	=102
0C	.	1.c	.	[0e	-re-	1g	.
.	.	.	.	.	.	1cc	.
.	.	4B-\	-se-	.	.	.	.
.	.	4A/	.	.	.	.	.
=103	=103	=103	=103	=103	=103	=103	=103
1r	.	1G	-re-	0e]	.	1b-	.
1C	-se-	1c	.	.	.	1cc	.
=104	=104	=104	=104	=104	=104	=104	=104
1G	-re-	2.B-\	.	0d	-re	2.dd\	.
.	.	4c\	.	.	.	4ee\	.
2F\	.	1d	-re	.	.	1ff	.
2D\	.	.	.	.	.	.	.
=105	=105	=105	=105	=105	=105	=105	=105
2E\	.	2r	.	0r	.	2ee\	.
2F\	.	1d	no-	.	.	1dd	.
1G	.	.	.	.	.	.	.
.	.	2e\	.	.	.	2b-\	.
=106	=106	=106	=106	=106	=106	=106	=106
1F	-re	1f	.	0r	.	1a	.
2r	.	1B-	.	.	.	2b-\	.
[2G\	no-	.	.	.	.	[2dd\	.
=107	=107	=107	=107	=107	=107	=107	=107
2G\]	.	2r	.	0r	.	4dd\]	.
.	.	.	.	.	.	4cc\	.
2F\	.	2f\	.	.	.	2a/	.
2G\	.	2d\	.	.	.	2b-\	.
2E\	.	2e\	.	.	.	2g/	.
=108	=108	=108	=108	=108	=108	=108	=108
1D	.	2f\	.	0r	.	1f	-bis.
.	.	2d\	.	.	.	.	.
2r	.	2c\	.	.	.	1r	.
[2E-i\	.	2B-\	.	.	.	.	.
=109	=109	=109	=109	=109	=109	=109	=109
4E-\]	.	2e-i\	.	0r	.	0r	.
4C/	.	.	.	.	.	.	.
2F\	.	2.d\	.	.	.	.	.
2E-i\	.	.	.	.	.	.	.
.	.	4c\	.	.	.	.	.
2C/	.	[2c\	.	.	.	.	.
=110	=110	=110	=110	=110	=110	=110	=110
1D	.	2c\]	.	0r	.	1f	Quo-
.	.	2Bni\	.	.	.	.	.
1C	-bis.	1c	-bis.	.	.	1e	-ni-
=111	=111	=111	=111	=111	=111	=111	=111
0r	.	1d	Quo-	0r	.	1f	-am
.	.	1e	-ni-	.	.	1g	tu
=112	=112	=112	=112	=112	=112	=112	=112
0r	.	1d	-am	0r	.	1a	so-
.	.	1g	tu	.	.	1b-	.
=113	=113	=113	=113	=113	=113	=113	=113
0r	.	2f\	so-	0r	.	1a	.
.	.	1d	.	.	.	.	.
.	.	.	.	.	.	2f/	.
.	.	2e\	.	.	.	2g/	.
=114	=114	=114	=114	=114	=114	=114	=114
0r	.	2f\	.	0r	.	2f/	-lus
.	.	1B-	.	.	.	2.b-\	sanc-
.	.	.	.	.	.	4cc\	.
.	.	[2f\	.	.	.	[2dd\	.
=115	=115	=115	=115	=115	=115	=115	=115
0r	.	4f\]	.	0r	.	2dd\]	.
.	.	4d\	.	.	.	.	.
.	.	2e-i\	-lus	.	.	1b-	.
.	.	1c	sanc-	.	.	.	.
.	.	.	.	.	.	2a/	.
=116	=116	=116	=116	=116	=116	=116	=116
1r	.	0B-	-tus	0d	tu	0b-	-tus
1BB-i	tu	.	.	.	.	.	.
=117	=117	=117	=117	=117	=117	=117	=117
1C	so-	1r	.	1e	so-	1g	tu
1E-i	.	1c	tu	1g	.	1g	so-
=118	=118	=118	=118	=118	=118	=118	=118
0D	-lus	2d\	so-	1f	.	1r	.
.	.	2e\	.	.	.	.	.
.	.	1f	.	1d	-lus	1a	.
=119	=119	=119	=119	=119	=119	=119	=119
1r	.	2e-i\	.	1r	.	1b-	.
.	.	2d\	.	.	.	.	.
1C	do-	1c	.	1e	do-	1cc	-lus
=120	=120	=120	=120	=120	=120	=120	=120
1.G	.	0B-	-lus	1d	.	1dd	do-
.	.	.	.	1g	.	2b-\	.
4F\	.	.	.	.	.	2g/	.
4E\	.	.	.	.	.	.	.
=121	=121	=121	=121	=121	=121	=121	=121
1D	.	2r	.	1f	.	1a	.
.	.	2f\	do-	.	.	.	.
1G	.	2d\	.	1g	.	1b-	-mi-
.	.	2e\	.	.	.	.	.
=122	=122	=122	=122	=122	=122	=122	=122
2.F\	.	1.f	.	2.a\	.	1a	-nus
4G\	.	.	.	4b-i\	.	.	.
1A	.	.	.	1cc	.	1r	.
.	.	2e\	.	.	.	.	.
=123	=123	=123	=123	=123	=123	=123	=123
2r	.	1c	.	2b-i\	.	0r	.
1A	.	.	.	1a	.	.	.
.	.	1d	-mi-	.	.	.	.
2B\	-mi-	.	.	2f\	-mi-	.	.
=124	=124	=124	=124	=124	=124	=124	=124
1c	-nus	0c	-nus	1e	-nus	0r	.
1F	.	.	.	2f\	tu	.	.
.	.	.	.	[2a\	so-	.	.
=125	=125	=125	=125	=125	=125	=125	=125
2r	.	1r	.	4a\]	.	0r	.
.	.	.	.	4g\	.	.	.
2c\	tu	.	.	2e\	.	.	.
2A\	.	1f	tu	2f\	.	.	.
2B\	.	.	.	2d\	.	.	.
=126	=126	=126	=126	=126	=126	=126	=126
2c\	so-	2e\	so-	1c	-lus	0r	.
2A\	.	2c\	.	.	.	.	.
2G\	.	2.d\	.	1r	.	.	.
2F\	.	.	.	.	.	.	.
.	.	4c\	.	.	.	.	.
=127	=127	=127	=127	=127	=127	=127	=127
2B-i\	.	2d\	.	0r	.	0r	.
2.A\	.	2.c\	.	.	.	.	.
4G\	.	4G/	.	.	.	.	.
[2G\	.	2B-\	.	.	.	.	.
=128	=128	=128	=128	=128	=128	=128	=128
2G\]	.	1A	.	1c	al-	1r	.
2F#i\	.	.	.	.	.	.	.
1G	.	1G	-lus	1B	.	1g	al-
=129	=129	=129	=129	=129	=129	=129	=129
1A	.	0r	.	1c	-tis-	1f	-tis-
1B	.	.	.	1d	.	1g	-si-
=130	=130	=130	=130	=130	=130	=130	=130
1A	.	0r	.	1e	.	1a	-mus
1d	.	.	.	1f	.	2r	.
.	.	.	.	.	.	2b-\	Je-
=131	=131	=131	=131	=131	=131	=131	=131
2c\	.	0r	.	1e	.	1cc	.
1A	.	.	.	.	.	.	.
.	.	.	.	2c\	.	1f	-su
2B\	.	.	.	2d\	.	.	.
=132	=132	=132	=132	=132	=132	=132	=132
2c\	.	1r	.	2c\	.	1r	.
1F	.	.	.	2.f\	.	.	.
.	.	[1F	al-	.	.	[1cc	Chri-
.	.	.	.	4g\	.	.	.
[2c\	.	.	.	[2a\	.	.	.
=133	=133	=133	=133	=133	=133	=133	=133
4c\]	.	2F/]	.	2a\]	.	2cc\]	.
4A\	.	.	.	.	.	.	.
2B-i\	.	2D/	.	1f	.	1dd	.
1G	.	1E	.	.	.	.	.
.	.	.	.	2e\	.	2cc\	.
=134	=134	=134	=134	=134	=134	=134	=134
0F	-lus	1r	.	0f	.	1.a	.
.	.	1F	.	.	.	.	.
.	.	.	.	.	.	2f/	.
=135	=135	=135	=135	=135	=135	=135	=135
1r	.	1.B-	.	1d	-si-	1g	.
1G	al-	.	.	1d	-mus	1b-	.
.	.	2A/	.	.	.	.	.
=136	=136	=136	=136	=136	=136	=136	=136
2A\	.	1F	.	1r	.	1a	.
2B\	.	.	.	.	.	.	.
1c	.	2r	.	1e	Je-	1g	.
.	.	2c\	.	.	.	.	.
=137	=137	=137	=137	=137	=137	=137	=137
2B-i\	-tis-	2d\	.	1f	.	2r	.
2A\	.	1f	.	.	.	2cc\	.
1G	-si-	.	.	1g	.	1b-	.
.	.	2e\	.	.	.	.	.
=138	=138	=138	=138	=138	=138	=138	=138
0F	-mus	0f	.	1a	.	1.a	.
.	.	.	.	2f\	.	.	.
.	.	.	.	2d\	.	2f/	.
=139	=139	=139	=139	=139	=139	=139	=139
2r	.	2e\	-tis-	1e	.	1g	.
2c\	Je-	2c\	.	.	.	.	.
2A\	.	1d	-si-	1f	.	1f	.
2B\	.	.	.	.	.	.	.
=140	=140	=140	=140	=140	=140	=140	=140
1.c	.	1c	-mus	1e	-su	2r	.
.	.	.	.	.	.	2g/	.
.	.	1r	.	1r	.	2a/	.
2B\	.	.	.	.	.	[2d/	.
=141	=141	=141	=141	=141	=141	=141	=141
1G	.	1B-	Je-	0r	.	2d/]	.
.	.	.	.	.	.	1g	.
1A	.	2.c\	.	.	.	.	.
.	.	.	.	.	.	2f/	.
.	.	4d\	.	.	.	.	.
=142	=142	=142	=142	=142	=142	=142	=142
0G	-su	2e-i\	.	0r	.	2.g/	.
.	.	1d	.	.	.	.	.
.	.	.	.	.	.	4a/	.
.	.	.	.	.	.	1b-	.
.	.	[2g\	.	.	.	.	.
=143	=143	=143	=143	=143	=143	=143	=143
1r	.	4g\]	.	0r	.	2g/	.
.	.	4e\	.	.	.	.	.
.	.	2f\	.	.	.	2a/	.
1c	Chri-	2c\	.	.	.	2g/	.
.	.	2e\	.	.	.	2cc\	.
=144	=144	=144	=144	=144	=144	=144	=144
2B-i\	.	1d	.	0r	.	2dd\	.
2G\	.	.	.	.	.	2b-\	.
2.A\	.	1c	.	.	.	1cc	-ste.
4G\	.	.	.	.	.	.	.
=145	=145	=145	=145	=145	=145	=145	=145
2A\	.	2f\	.	0r	.	1r	.
2.G\	.	2.e\	.	.	.	.	.
.	.	.	.	.	.	2r	.
4D\	.	4d\	.	.	.	.	.
2F\	.	2d\	-su	.	.	2f/	Cum
=146	=146	=146	=146	=146	=146	=146	=146
1E	.	2r	.	1r	.	2g/	.
.	.	2g\	Chri-	.	.	2e/	.
1D	.	2f\	.	1d	Chri-	1f	.
.	.	2d\	.	.	.	.	.
=147	=147	=147	=147	=147	=147	=147	=147
0r	.	2e-i\	.	1c	.	2g/	sanc-
.	.	2c\	.	.	.	2e/	.
.	.	1B-	.	1d	.	1d	.
=148	=148	=148	=148	=148	=148	=148	=148
0r	.	2r	.	1e	-ste	1c	.
.	.	2c\	.	.	.	.	.
.	.	2d\	.	2r	.	2f/	-cto
.	.	[2B-\	.	2f\	Cum	[2f/	spi-
=149	=149	=149	=149	=149	=149	=149	=149
0r	.	2B-\]	.	1g	sanc-	4f/]	.
.	.	.	.	.	.	4d/	.
.	.	4A/	.	.	.	2e/	.
.	.	4G/	.	.	.	.	.
.	.	1F	.	1c	-to	[1f	.
=150	=150	=150	=150	=150	=150	=150	=150
1r	.	1B-	.	1r	.	2f/]	.
.	.	.	.	.	.	2d/	.
[1C	.	[1c	.	[1g	spi-	1e	.
=151	=151	=151	=151	=151	=151	=151	=151
2C/]	.	1c]	.	2g\]	.	2g/	.
2AA/	.	.	.	1a	.	2f/	.
1BB-i	-ste.	1B-	.	.	.	1d	-ri-
.	.	.	.	2g\	.	.	.
=152	=152	=152	=152	=152	=152	=152	=152
1r	.	0c	-ste.	1.e	.	1c	-tu
1C	Cum	.	.	.	.	1g	in
.	.	.	.	2c\	.	.	.
=153	=153	=153	=153	=153	=153	=153	=153
1.F	sanc-	2r	.	1d	.	1.a	.
.	.	2F/	Cum	.	.	.	.
.	.	2A/	.	1f	-ri-	.	.
2E\	.	2B-\	.	.	.	2g/	.
=154	=154	=154	=154	=154	=154	=154	=154
1C	-to	1c	sanc-	1e	-tu	1.g	glo-
2r	.	1B-	.	1d	.	.	.
2G\	spi-	.	.	.	.	2f/	.
=155	=155	=155	=155	=155	=155	=155	=155
2A\	.	1c	.	2r	.	1e	.
1c	.	.	.	2g\	in	.	.
.	.	1d	-cto	1f	.	1d	.
2B\	.	.	.	.	.	.	.
=156	=156	=156	=156	=156	=156	=156	=156
0c	.	2r	.	1.e	glo-	1c	.
.	.	1g	spi-	.	.	.	.
.	.	.	.	.	.	1e	.
.	.	2e\	.	2c\	.	.	.
=157	=157	=157	=157	=157	=157	=157	=157
2B\	.	2d\	.	1d	.	2f/	.
2G\	.	2B-\	.	.	.	2g/	.
1A	-ri-	1c	.	1c	.	2r	.
.	.	.	.	.	.	[2cc\	.
=158	=158	=158	=158	=158	=158	=158	=158
1G	-tu	1d	.	2r	.	2cc\]	.
.	.	.	.	2d\	.	2bni\	.
1r	.	1c	-ri-	2e\	.	1cc	.
.	.	.	.	[2A/	.	.	.
=159	=159	=159	=159	=159	=159	=159	=159
1F	glo-	1f	-tu	2A/]	.	1a	.
.	.	.	.	1d	.	.	.
2.G\	.	2r	.	.	.	1g	.
.	.	2e\	in	2c\	.	.	.
4A\	.	.	.	.	.	.	.
=160	=160	=160	=160	=160	=160	=160	=160
2B-i\	.	2d\	.	2.d\	.	2.f/	.
1A	.	1f	glo-	.	.	.	.
.	.	.	.	4e\	.	4g/	.
.	.	.	.	1f	.	2a/	.
[2d\	.	[2B-\	.	.	.	2b-\	-ri-
=161	=161	=161	=161	=161	=161	=161	=161
4d\]	.	2B-\]	.	2d\	.	2g/	-a
4B-i\	.	.	.	.	.	.	.
2c\	.	2A/	-ri-	2e\	.	2a/	.
2G\	.	1B-	-a	2d\	.	2r	.
2B-i\	.	.	.	2g\	.	2dd\	de-
=162	=162	=162	=162	=162	=162	=162	=162
1A	.	2r	.	2a\	.	2cc\	.
.	.	2c\	de-	2f\	-ri-	2a/	.
1G	.	2.d\	.	1g	-a	2.b-\	.
.	.	4B-\	.	.	.	8a/L	.
.	.	.	.	.	.	8g/J	.
=163	=163	=163	=163	=163	=163	=163	=163
2c\	.	2A/	.	1r	.	2f/	.
2.B-i\	.	2B-\	.	.	.	1g	.
.	.	2G/	.	2r	.	.	.
4A\	-ri-	.	.	.	.	.	.
2A\	-a	[2F/	.	2c\	de-	[2a/	.
=164	=164	=164	=164	=164	=164	=164	=164
2r	.	2F/]	.	2d\	.	2a/]	.
2d\	de-	2G/	.	2B\	.	4g/	.
.	.	.	.	.	.	4f/	.
2c\	.	2A/	.	1c	.	2e/	.
2A\	.	[2F/	.	.	.	2f/	-i
=165	=165	=165	=165	=165	=165	=165	=165
2B-i\	.	4F/]	.	2d\	.	1g	pa-
.	.	4D/	.	.	.	.	.
2G\	.	2E/	-i	2B\	.	.	.
1F	-i	1F	pa-	1A	.	2c/	.
.	.	.	.	.	.	[2f/	.
=166	=166	=166	=166	=166	=166	=166	=166
2r	.	1G	.	1G	.	4f/]	.
.	.	.	.	.	.	4d/	.
2G\	pa-	.	.	.	.	2e/	.
2A\	.	1F	-tris	2c\	-i	[1f	-tris
[2F\	.	.	.	[2c\	pa-	.	.
=167	=167	=167	=167	=167	=167	=167	=167
2F\]	.	1.r	.	4c\]	.	1f]	.
.	.	.	.	4A/	.	.	.
4E\	.	.	.	2B\	.	.	.
4D\	.	.	.	.	.	.	.
1C	-tris	.	.	[1c	.	2e/	.
.	.	2G/	A-	.	.	2c/	.
=168	=168	=168	=168	=168	=168	=168	=168
1F	A-	1A	.	2c\]	.	2r	.
.	.	.	.	2A/	.	2cc\	A-
[1G	.	1G	.	1B-i	.	2b-\	.
.	.	.	.	.	.	[2g/	.
=169	=169	=169	=169	=169	=169	=169	=169
1G]	.	1B-	.	2d\	.	2g/]	.
.	.	.	.	2c\	.	4f/	.
.	.	.	.	.	.	4g/	.
1F	.	1c	.	1A	-tris.	1a	.
=170	=170	=170	=170	=170	=170	=170	=170
0G	.	2B-\	.	1G	A-	1r	.
.	.	1B-	.	.	.	.	.
.	.	.	.	1d	.	1g	.
.	.	4A/	.	.	.	.	.
.	.	4B-\	.	.	.	.	.
=171	=171	=171	=171	=171	=171	=171	=171
2r	.	1c	.	1.e	.	2a/	.
2C/	.	.	.	.	.	2cc\	.
2E\	.	2r	.	.	.	2b-\	.
2F\	.	2f\	.	2d\	.	[2dd\	.
=172	=172	=172	=172	=172	=172	=172	=172
1G	.	2.d\	.	1.d	.	2dd\]	.
.	.	.	.	.	.	4cc\	.
.	.	4e\	.	.	.	4b-\	.
1F	.	1f	.	.	.	1a	.
.	.	.	.	2c\	.	.	.
=173	=173	=173	=173	=173	=173	=173	=173
1G	.	1d	.	1B	.	2r	.
.	.	.	.	.	.	2dd\	.
1A	.	2r	.	1A	.	2cc\	.
.	.	2c\	.	.	.	2a/	.
=174	=174	=174	=174	=174	=174	=174	=174
2r	.	0d	.	1G	.	2b-\	.
1d	.	.	.	.	.	2g/	.
.	.	.	.	1B	.	2f/	.
2B\	.	.	.	.	.	2g/	.
=175	=175	=175	=175	=175	=175	=175	=175
2A\	.	2e\	.	2c\	.	1a	.
2F\	.	2f\	.	2d\	.	.	.
1G	.	2d\	.	2r	.	1g	.
.	.	2B-\	.	[2g\	.	.	.
=176	=176	=176	=176	=176	=176	=176	=176
1A	.	1c	.	2g\]	.	2r	.
.	.	.	.	2f\	.	2cc\	.
1G	.	1d	.	1g	.	4bni\	.
.	.	.	.	.	.	2bni\	.
.	.	.	.	.	.	4a/	.
=177	=177	=177	=177	=177	=177	=177	=177
1c	.	2c\	.	1e	.	1cc	.
.	.	1A	.	.	.	.	.
2r	.	.	.	1d	.	2f/	.
2B-i\	.	2B-\	.	.	.	2g/	.
=178	=178	=178	=178	=178	=178	=178	=178
2A\	.	2c\	.	2.c\	.	2.a/	.
1c	.	2F/	.	.	.	.	.
.	.	.	.	4d\	.	4b-\	.
.	.	2r	.	2e\	.	1cc	.
[2F\	.	2A/	.	2f\	.	.	.
=179	=179	=179	=179	=179	=179	=179	=179
2F\]	.	1G	.	2d\	.	1b-	.
2E\	.	.	.	2e\	.	.	.
1F	.	2F/	.	2r	.	2a/	.
.	.	2D/	.	2a\	.	2f/	.
=180	=180	=180	=180	=180	=180	=180	=180
2r	.	1C	.	2g\	.	1g	.
2G\	.	.	.	2e\	.	.	.
2.A\	.	1F	.	2.f\	.	2.c/	.
4F\	.	.	.	8e\L	.	4d/	.
.	.	.	.	8d\J	.	.	.
=181	=181	=181	=181	=181	=181	=181	=181
2E\	.	2G/	.	2c\	.	2e/	.
2F\	.	2A/	.	1d	.	2d/	.
2D\	.	2B-\	.	.	.	2f/	.
[2C/	.	2c\	.	[2e\	.	2g/	.
=182	=182	=182	=182	=182	=182	=182	=182
2C/]	.	2r	.	2e\]	.	1a	.
2D\	.	2F/	.	4d\	.	.	.
.	.	.	.	4c\	.	.	.
2E\	.	1G	.	2B\	.	2g/	.
[2C/	.	.	.	2c\	.	[2cc\	.
=183	=183	=183	=183	=183	=183	=183	=183
4C/]	.	2A/	.	1d	.	2cc\]	.
4AA/	.	.	.	.	.	.	.
2BB-i/	.	2F/	.	.	.	2b-\	.
1C	.	1c	.	2G/	.	2.g/	.
.	.	.	.	[2c\	.	.	.
.	.	.	.	.	.	[4a/	.
=184	=184	=184	=184	=184	=184	=184	=184
1D	.	1F	.	4c\]	.	4a/]	.
.	.	.	.	4A/	.	4f/	.
.	.	.	.	2B\	.	1f	.
1C	.	1G	.	[1cl	-men.	.	.
.	.	.	.	.	.	2e/	.
=185	=185	=185	=185	=185	=185	=185	=185
0FFl	-men.	0Fl	-men.	0c]	.	0fl	-men.
==	==	==	==	==	==	==	==
*-	*-	*-	*-	*-	*-	*-	*-
!!!RDF**kern: l=long note in original notation
!!!RDF**kern: i=editorial accidental
!!!ENC:	Chris Gage 08-16-2012, Will Watson
!!!END:	2014/05/13/
!!!EED:	Will Watson
!!!EEV:	2014/05/14/
!!!ONB:	Translated from MusicXML and edited on 2014/05/14/ by Craig Sapp
!!muse2ps: T^@{OPR}^u^@{ONM}{. }@{OTL}^C^@{COM}^i2I150v85,85,85,130Q16
